X:3508
T:Lamb \& Sallad
O:england
R:Reel
M:C|
A:Westmorland
N:P22 2/2
K:C
EGGE G2d2|dBAG FAFD|\
EGGE G2d2|eBGF G/2A/2B E2::\
e>feB efg2|f>gfe def2|\
e>feB efg2|fedf e/2e/2e E2|\
P:bar missing here ???
efeB def2|eddB cBAG|\
BdAG E/2E/2E E2:|


